svgs/topmark/2_cones_down/black.svg

<?xml version="1.0" encoding="UTF-8" standalone="no"?>
<svg
   version="1.0"
   width="33.657959"
   height="83"
   id="svg2"
   xmlns="http://www.w3.org/2000/svg"
   xmlns:svg="http://www.w3.org/2000/svg"
   xmlns:rdf="http://www.w3.org/1999/02/22-rdf-syntax-ns#"
   xmlns:cc="http://creativecommons.org/ns#"
   xmlns:dc="http://purl.org/dc/elements/1.1/">
  <title
     id="title2984">Q9: Topmark, south mark</title>
  <metadata
     id="metadata9">
    <rdf:RDF>
      <cc:Work
         rdf:about="">
        <dc:format>image/svg+xml</dc:format>
        <dc:type
           rdf:resource="http://purl.org/dc/dcmitype/StillImage" />
        <dc:title>Q9: Topmark, south mark</dc:title>
        <cc:license
           rdf:resource="http://creativecommons.org/publicdomain/zero/1.0/" />
      </cc:Work>
      <cc:License
         rdf:about="http://creativecommons.org/publicdomain/zero/1.0/">
        <cc:permits
           rdf:resource="http://creativecommons.org/ns#Reproduction" />
        <cc:permits
           rdf:resource="http://creativecommons.org/ns#Distribution" />
        <cc:permits
           rdf:resource="http://creativecommons.org/ns#DerivativeWorks" />
      </cc:License>
    </rdf:RDF>
  </metadata>
  <defs
     id="defs7" />
  <path
     d="M 1.5410156,0.86523438 16.845703,32.611328 32.150391,0.86523438 Z M 1.5253906,33.365234 16.845703,64.572266 32.166016,33.365234 Z"
     id="path_fill_h12"
     style="fill:#000407" />
  <path
     d="M 0,0 C 0.1936014,0.239989 10.506327,21.788838 15.75,32.5 H 0.03125 c 0.1066724,0.03795 14.985878,30.454414 16.125,32.78125 h -1.5625 V 83 h 4.25 V 65.28125 h -1.4375 C 18.545357,62.952819 33.448489,32.469199 33.625,32.5 33.415254,32.46897 17.78125,32.5 17.78125,32.5 23.222251,21.869372 33.8125,0.288261 33.65625,0 Z m 3.3125,2 h 27 l -13.5,28 z m 0,32.5 h 27 l -13.5,27.5 z"
     id="path_stroke"
     style="display:inline;stroke:#000000;stroke-opacity:1" />
</svg>

<?xml version="1.0" encoding="UTF-8" standalone="no"?>
<svg
   xmlns:dc="http://purl.org/dc/elements/1.1/"
   xmlns:cc="http://creativecommons.org/ns#"
   xmlns:rdf="http://www.w3.org/1999/02/22-rdf-syntax-ns#"
   xmlns:svg="http://www.w3.org/2000/svg"
   xmlns="http://www.w3.org/2000/svg"
   xmlns:sodipodi="http://sodipodi.sourceforge.net/DTD/sodipodi-0.dtd"
   xmlns:inkscape="http://www.inkscape.org/namespaces/inkscape"
   version="1.0"
   width="33.657959"
   height="83"
   id="svg2"
   inkscape:version="0.48.2 r9819"
   sodipodi:docname="south_black.svg"
   sodipodi:version="0.32"
   inkscape:output_extension="org.inkscape.output.svg.inkscape"
   sodipodi:modified="true">
  <title
     id="title2983">Q9: Topmark, black south mark</title>
  <metadata
     id="metadata10">
    <rdf:RDF>
      <cc:Work
         rdf:about="">
        <dc:format>image/svg+xml</dc:format>
        <dc:type
           rdf:resource="http://purl.org/dc/dcmitype/StillImage" />
        <dc:title>Q9: Topmark, black south mark</dc:title>
        <cc:license
           rdf:resource="http://creativecommons.org/licenses/publicdomain/" />
      </cc:Work>
      <cc:Work
         rdf:about="">
        <dc:format>image/svg+xml</dc:format>
        <dc:type
           rdf:resource="http://purl.org/dc/dcmitype/StillImage" />
      </cc:Work>
      <cc:License
         rdf:about="http://creativecommons.org/licenses/publicdomain/">
        <cc:permits
           rdf:resource="http://creativecommons.org/ns#Reproduction" />
        <cc:permits
           rdf:resource="http://creativecommons.org/ns#Distribution" />
        <cc:permits
           rdf:resource="http://creativecommons.org/ns#DerivativeWorks" />
      </cc:License>
    </rdf:RDF>
  </metadata>
  <defs
     id="defs8" />
  <sodipodi:namedview
     pagecolor="#ffffff"
     bordercolor="#666666"
     borderopacity="1"
     objecttolerance="10"
     gridtolerance="10"
     guidetolerance="10"
     inkscape:pageopacity="0"
     inkscape:pageshadow="2"
     inkscape:window-width="1440"
     inkscape:window-height="808"
     id="namedview6"
     showgrid="false"
     inkscape:zoom="11.92367"
     inkscape:cx="-9.5046322"
     inkscape:cy="41.5"
     inkscape:window-x="0"
     inkscape:window-y="0"
     inkscape:window-maximized="1"
     inkscape:current-layer="svg2" />
  <path
     style="fill:#000000;stroke:none;stroke-width:1px;stroke-linecap:butt;stroke-linejoin:miter;stroke-opacity:1"
     d="M 16.801626,63.527834 L 1.2928214,33.371824 L 16.973946,33.544144 L 15.940026,30.442383 L 1.8097816,0.975654 L 31.793471,1.320294 L 17.490907,30.614703 L 16.284666,33.716464 L 31.621151,33.544144 L 16.801626,63.527834 z "
     id="path2987"
     inkscape:connector-curvature="0" />
  <path
     d="M 0,0 C 0.1936014,0.239989 10.506327,21.788838 15.75,32.5 L 0.03125,32.5 C 0.1379224,32.53795 15.017128,62.954414 16.15625,65.28125 L 14.59375,65.28125 L 14.59375,83 L 18.84375,83 L 18.84375,65.28125 L 17.40625,65.28125 C 18.545357,62.952819 33.448489,32.469199 33.625,32.5 C 33.415254,32.46897 17.78125,32.5 17.78125,32.5 C 23.222251,21.869372 33.8125,0.288261 33.65625,0 L 0,0 z M 3.3125,2 L 30.3125,2 L 16.8125,30 L 3.3125,2 z M 3.3125,34.5 L 30.3125,34.5 L 16.8125,62 L 3.3125,34.5 z "
     id="path4" />
</svg>
